X:1
T:Llewellyn, 86.88.6
T:Stanley Llewellyn Osborne, 1939
T:Llewellyn, 86.88.6
T:Public Domain
C:Stanley Llewellyn Osborne, 1939
Z:Public Domain
%%score ( 1 2 ) ( 3 4 )
L:1/8
M:4/4
K:Eb
V:1 treble 
V:2 treble 
V:3 bass 
V:4 bass 
V:1
 [EG]2 | [EA]2 [EG]2 [Ec]2 [EB]2 | [DB]2 (FA) [EG]2 [EG][F=A] | [FB]2 (GF) F2 z c x | E2 D4 [DF]2 | %5
 E2 [DF]2 [EG]2 [EG]2 | [=EB]2 (AG) [FA]2 (CD) | [EG]2 [DA]2 [EB]2 [Ec]2 | %8
 [F_d]2 (cB) [Ec]2 [B=d]2 | ([ce][Ac])([FA][EG]) (EC) z E | [B,E]6 |] %11
V:2
 x2 | x8 | x2 D2 x4 | x2 c2 d3 E2 | B6 x2 | E2 x6 | x2 C2 x F2 x | x8 | x2 E2 x4 | x4 F2 D2 | x6 |] %11
V:3
 (E,D,) | [C,C]2 [E,B,]2 A,2 [G,B,]2 | [F,A,]2 [B,,B,]2 [E,B,]2 (B,C) | %3
 B,=A, [E,G,]2 [C,B,]2 [F,A,]2 x | (B,,4 B,2) [A,B,]2 | [G,B,]2 [F,B,]2 [E,B,]2 [_D,B,]2 | %6
 (C,D,) [E,C]2 [F,C]2 [A,C]2 | [G,B,]2 [F,A,]2 G,2 [C,A,]2 | (A,F,) [E,G,]2 [A,,A,]2 [A,F]2 | %9
 [G,E]2 ([A,C][F,A,]) B,2 [B,,A,]2 | [E,G,]6 |] %11
V:4
 B,2 | x4 A,2 x2 | x6 E,2 | D,2 x7 | B,6 x2 | x8 | C2 x6 | x4 G,2 x2 | B,,2 x6 | x4 B,2 x2 | x6 |] %11

